X: 30616
T: One That Was Lost, The
R: jig
M: 6/8
K: Edorian
g2f|:edB BAF|FED EFA|BAF D2A|FEF Bdf|
edB BAF|FED EFA|dfb afd|1 ~e3 g2f:|2 efg fed||
~B3 efa|~b3 edB|~d3 BdB|AFA ded|
~B3 efa|baf edB|dfb afd|efg fed|
~B3 efa|~b3 edB|~d3 BdB|AFA def|
gfe fed|Bec dBA|dfb afd|~e3 g2f||

